!!!SOCIAL_FUNCTION:	bird dance songs
!!!PDT:	1956
!!!OTL: No_90_Bird_Dance_Song_(m).krn
!!!LANG: Non-Tone
!!!LING_GROUP: Muskogean
!!!REG: Florida
**kern
*staff1
=1-
*clefF4
*k[f#c#g#d#]
*M2/4
8B\L
8B\J
16B\LL
16B\J
8B\J
=2
(8.B\L
16A\Jk)
8G#\L
16G#\Jk
16r
=3
8B\L
8B\J
16B\LL
16A\J
8G#\J
=4
4E\
8BB/L
16BB/Jk
16r
=5!|:
8G#\L
8A\J
16G#\LL
16E\J
8G#\J
=6
4E\
8BB/L
8BB/J
=7||
*M3/4
8E\L
8E\J
16BB/
16r
8E\
16E\LL
16E\J
8G#\J
=8
*M2/4
4E\
8BB/L
16BB/Jk
16r
==:|!
*-
